X:1
T:Title
%%score { ( 1 3 ) | ( 2 4 ) }
L:1/8
Q:1/4=112
M:4/4
K:G
V:1 treble nm="Grand Piano"
V:3 treble 
V:2 bass 
V:4 bass 
V:1
 [B,G]4 [B,G]2 [B,G]2 | [CE]2 [DF]2 [DG]4 | A4 A2 B2 | A2 G2 F2 E2 | A4 [^CA]4 | [F,D]8 | %6
w: Jay~Devereaux * *||||||
 [DB]4 [DB]2 [DB]2 | [B,G]2 [CA]2 [DB]4 | z4 z2 [Ee]2 | [Fd]2 [Fc]2 [GB]4 | [Ge]4 [DGd]2 [DFc]2 | %11
w: |||||
 [DGB]2 [DFA]2 [DGd]2 [EGc]2 | [DGB]4 [CFA]4 |[M:8/4] [B,G]8 z8 |[M:4/4] [CEG]8 | [B,DG]8 |] %16
w: |||||
V:2
 [G,,G,]4 [G,,G,]2 [G,,G,]2 | [C,G,]2 [C,A,]2 [B,,G,]4 | [D,F,D]4 [D,F,D]2 [D,G,D]2 | %3
 [D,F,D]2 [E,A,^C]2 [F,A,D]2 [G,B,D]2 | [A,-E]3 [A,B,] z2 G,2 | D,8 | [G,,G,]4 [G,,G,]2 [G,,G,]2 | %7
 [G,,G,]2 [G,,G,]2 [G,,G,]4 | [C,G,]4 [B,,G,]2 .[C,C]2 | [D,A,]2 [D,D]2 [G,D]4 | [C,C]4 B,,2 A,,2 | %11
 G,,2 C,2 B,,2 C,2 | D,4 D,4 |[M:8/4] G,,8 z8 |[M:4/4] C,8 | G,,8 |] %16
V:3
 x8 | x8 | x8 | x8 | z2 ^CD A,2 z2 | x8 | x8 | x8 | [Ec]4 [Ed]2 z B, | x8 | x8 | x8 | x8 | %13
[M:8/4] x16 |[M:4/4] x8 | x8 |] %16
V:4
 x8 | x8 | x8 | x8 | D2 z2 A,,4 | x8 | x8 | x8 | x8 | x8 | x8 | x8 | x8 |[M:8/4] x16 |[M:4/4] x8 | %15
 x8 |] %16

